X:1
T:O Fly to Him
T:O Fly to Him
T:John Robson Sweney
T:Frances Jane (Fanny) Crosby, 1890
T:Public Domain Courtesy of the Cyber Hymnal™
C:John Robson Sweney
Z:Public Domain
Z:Courtesy of the Cyber Hymnal™
%%score ( 1 2 ) 3
L:1/8
Q:1/4=100
M:6/8
K:F
V:1 treble 
V:2 treble 
V:3 bass 
V:1
 (F/G/) | [FA]2 [FA] ([FA]^G)[FA] | ([FB]F)[FG] [FA]2 [FA] | ([DA]G)D ([CE][DF])[=B,D] | C3 =C2 | %5
w: 1.~E- *|ter- ni- ty * is|draw- * ing near, O|un- * con- vert- * ed|soul. Dost|
w: 2.~E- *|ter- ni- ty * is|draw- * ing near, Yet|un- * pre- pared * art|thou; A-|
w: 3.~E- *|ter- ni- ty * is|draw- * ing near, Fast|wanes * thy ta- * per|light, Oh,|
w: 4.~Oh, *|slight the Sav- * ior’s|call * no more; Thou|hast * no help * but|He; And|
 ([CF]/G/) | [FA]2 [FA] ([FA]^G)[FA] | ([FB]F)[FG] [FA]2 [FA] | ([DA]G)D ([CE][FA])[EG] | %9
w: thou *|not fear the * trou-|bled * waves That o’er|thee * soon may * roll?|
w: las, *|what must be- * come|of * thee Should death|o’er- * take thee * now?|
w: think *|how soon its * flick-|ering * spark May fade|in * end- less * night!|
w: if *|thou still His * grace|re- * fuse Where will|thy * re- fuge * be?|
 F3- =F2 ||"^Refrain" [Fc] | [Ec]2 [EG] ([EG][FA])[GB] | ([FB]A)[F^G] [FA]2 [FA] | %13
w: ||||
w: ||||
w: O *|fly|to Him, the * bless-|èd * One, Who pleads|
w: ||||
 ([EA]G)[EG] ([FG]A)[F=B] | [Ec]3- [Ec]2 [EB] | [FA]2 [FA] ([FA][EB])[Fc] | [Fe]2 [Fd] [FB]2 [DG] | %17
w: ||||
w: ||||
w: thy * cause on * high;|While * yet|His mer- cy * call-|eth thee, Say, where-|
w: ||||
 ([CF][FA])[Fc] ([Ec]G)[CA] | [CF]4 |] %19
w: ||
w: ||
w: fore * wilt thou * die?||
w: ||
V:2
 x | x6 | x6 | x2 D x3 | C3- =C2 | x | x6 | x6 | x6 | F3 =F2 || x | x6 | x6 | x6 | x6 | x6 | x6 | %17
 x6 | x4 |] %19
V:3
 ([F,A,]/B,/) | [F,C]2 [F,C] ([F,C]=B,)[F,C] | [F,D]2 [F,_D] [F,C]2 [F,C] | %3
 [G,=B,]2 [G,B,] [G,,G,]2 [G,,F,] | [C,E,-]3 [C,E,]2 | ([F,A,]/B,/) | %6
 [F,C]2 [F,C] ([F,C]=B,)[F,C] | [F,D]2 [F,_D] [F,C]2 [F,C] | [B,,B,]2 [B,,G,] ([C,G,]C)[C,B,] | %9
 [F,A,-]3 [F,A,]2 || [F,A,] | [C,G,]2 [C,C] [C,C]2 [C,C] | [F,C]2 [F,=B,] [F,C]2 [F,C] | %13
 [G,C]2 [G,C] ([G,=B,]C)[G,D] | [C,C]3- [C,C]2 [C,C] | [F,C]2 [F,C] ([F,C]G,)[A,C] | %16
 B,2 [B,,B,] [B,,D]2 [B,,B,] | ([C,A,]C)[C,A,] ([C,G,]B,)[C,C] | [F,A,]4 |] %19

